X:1
T:Last Spring
T:Grieg   Arr. solo guitar G.Dempsey
%%score ( 1 2 3 4 )
L:1/8
Q:1/2=30
M:4/4
K:G
V:1 treble-8 nm="Guitar"
V:2 treble-8 
V:3 treble-8 
V:4 treble-8 
V:1
 [gb]6 ga | b2 d'6 | [GB]2 GB e2 [Dd][E^c] | d2 AB =c3 d | B6 GA | B2 d4 ^C2 | %6
 [A=c]2 Ac [^D=f]2 [Ee][=F^d] | [Be]2 Bc d3 e | c6 BA | B2 G2- G3 z | %10
 [B,B]2 [^C^c][^D^d] [Ee]2 [Dd][Cc] | e^dd^c B3 d | e6 f^d | ^c2 F6 | B2 ^c^d [^G^Ae]2 [^D=G^d]^c | %15
 [^GBe]^d[=ABf][^Ad] B3 B | f6 ^d^^c | ^d2 B6 | =d2 BA G2 AB | cee^d B3 G | E6 GB | ^d2 f4 z2 | %22
 g2 [Gg][Ff] [Fd]2 [Ee][Ff] | f[Ee][Gg][Ee] B3 B | d8 | d6 BA | B2 G4 BA | B2 G4 BA | BAGB AGBA | %29
 GBAG BAGB | [G,DBd]6 z2 | [B,Fdf]6 z2 | [GB]6 GA | B2 d6 | [gb]2 gb e'2 [dd'][e^c'] | %35
 d'2 [Aa]b c'3 d' | !4!!3![gb]6 ga | b2 d'4 ^c'2 | [a=c']2 ac' !2!!4![^d=f']2 [ee'][=f^d'] | %39
 [be']2 [^gb]c' d'3 e' | !4!c'6 ba |"^CV.................." b2 g6 | b2 ^c'^d' e'2 ^d'^c' | %43
 e'^d'd'^c' b3 ^d' | e'6 f'^d' | ^c'2 f2 f2 f2 | b2 ^c'^d' [^ae']2 !1![^dgd']c' | %47
 !1![^ge']^d'!3!!4![Baf'][^a^d'] b3 b | f'6 ^d'^^c' | ^d'2 b6 |"^CV............." d'2 ba g2 ab | %51
 c'e'e'^d' b3 g | e6 !-(!g!-)!b | ^d'2 f'4 z2 | g'2 g'f' d'2 e'f' | f'e'g'e' b3 b | d'8- | d'6 ba | %58
 b2 g4 ba | ba g4 ba | bagb agba | [=fg]bag bagb | [DGBd']6 z2 | f'6 z2 | [GB]6 [G,G][A,A] | %65
 B2 [Dd]6 |{/e} !arpeggio![G,DGBd]8 |] %67
V:2
 e4 _e4 | [dg]4 [Dcf]4 | [G,D]4 [^C_B]4 | [FA]2 z2 [G,E]2 [A,F]2 | [G,B,DG]4 [E,B,E]4 | %5
 [B,F]4 [D=FA]4 | [A,E]4 [=CA]4 | [E,E^G]4 [A,^F]2 [B,G]2 | [A,EA]4 [DF]4 | [G,CE]4 [G,B,D]4 | %10
 [E,G]8 | [B,FB]4 F,4 | [EG]4 [B,F]2 ^DF | [F,^CA]4 [B,^DB]4 | [B,E^G]2 ^D2 ^C2 B,2 | %15
 ^G2 ^D2 [^G,B,^D]2 [=G,^CE]2 | [F,-^DB]4 [F,E^A]4 | [B,F]4 =D4 | [G,=DG]4 [CE]4 | %19
{/E} [A,F]4 [^DF]2 ^D2 | [G,B,]4 [F,^A,]2 [E,A,E]2 | [B,FB]4 [A,DFc]4 | [G,DGB]4 [B,G]4 | %23
 C4 [E,G]4 | [B,DG]4 [CE]2 GA | [B,G]4 [CF]4 | [G,B,=F]4 [^CE]4 | [G,D=F]4 [^CE]4 | [G,=F]6 _D2 | %29
 [G,CE]4 _E4 | x8 | x8 | E4 _E4 | [DG]6 F2 | [Gd]4 [^c_b]4 | [Adf]4 [Ace]2 [df]2 | %36
 !2!!1![E^c]2 !2!!1![_E=c]2 !0!!1![DB]2 [^ce]2 | [dg]2 [e_b]2 [fa]4 | [A,e]2 z2 !0!!3![A,c']4 | %39
 e4 [Bf]2 [E=g]2 | !2!!1![=FA]2 !2!!1![E^G]2 [_E=G]2 [D^F]2 | [G^c]2 =c4 !0!B2 | %42
 !0![EG]2 !0![Bf]2 [Ge]2 [Bf]2 | [Eg]2 [Bf]2 [Ge]2 [Bf]2 | [A,c]2 b2 !1![ca]2 [B^d]2 | %45
 [FA]2 [B,B^d]2 [Ac]2 [B,B^d]2 | !0![E^GB]2 ^d2 ^c2 z2 | !1!B2 !1!^d2 [^Gd]2 [=G^ce]2 | %48
 [B^d]2 =d2 ^c2 [e^a]2 | ^g2 =g2 F4 | [B,dg]4 [CGBe]4 | [Aef]4 [B,A^df]4 | %52
 [G,EB]4 [F,E^A^c]2 [E,Ac]2 | [Bf]4"^CV" [Adf=c']4 | !arpeggio![dgb]4 [Bf]4 | [gc']4 [eg]4 | %56
 [Dgb]4 [ceg]2 ga | [B,dg]4 [cf]4 | [DG=f]4 [^CBe]4 | [DGd=f]4 [^CBe]4 | [DGd=f]2 G2 [Cc]2 [Bd]2 | %61
 [Gc]2 e4 _e2 | x8 | [DB]6 z2 | E4 _E4 | [DG]4 [CFB]2 [DFA]2 | x8 |] %67
V:3
 x8 | x4 b2 a2 | x8 | x8 | x8 | x8 | x8 | x8 | x8 | x8 | x8 | x8 | x8 | x8 | x8 | x8 | x8 | x8 | %18
 x8 | x8 | x8 | x8 | x8 | x8 | x8 | x8 | x8 | x8 | x8 | x8 | x8 | x8 | x8 | x4 [Ac]4 | x8 | x8 | %36
 x8 | x8 | x8 | x8 | x8 | x8 | x8 | x8 | x8 | x8 | x8 | x8 | x8 | x8 | x8 | x8 | x8 | x8 | x8 | %55
 x8 | x8 | x8 | x8 | x8 | x8 | x8 | x8 | x8 | x8 | x8 | x8 |] %67
V:4
 x8 | x8 | x8 | x8 | x8 | x8 | x8 | x8 | x8 | x8 | x8 | x4 E^DDB, | x8 | x8 | x8 | x8 | x8 | x8 | %18
 x8 | x8 | x8 | x8 | x8 | x8 | x8 | x2 D6 | x8 | x8 | x8 | x8 | x8 | x8 | x8 | x8 | x8 | x8 | x8 | %37
 x8 | x8 | x8 | x8 | E2 _E2 D4 | x8 | x8 | x8 | x8 | x8 | x8 | f8 | B,6 ^D2 | x8 | x8 | x8 | x8 | %54
 x8 | x8 | x8 | x2 D6 | x2 G,2 x4 | x2 G,2 x4 | x8 | x8 | x8 | x8 | x8 | x8 | x8 |] %67

